svg/color/cbank.svg

<?xml version="1.0" encoding="UTF-8" ?>
<!DOCTYPE svg PUBLIC "-//W3C//DTD SVG 1.1//EN" "http://www.w3.org/Graphics/SVG/1.1/DTD/svg11.dtd">
<svg width="250pt" height="250pt" viewBox="0 0 250 250" version="1.1" xmlns="http://www.w3.org/2000/svg">
<g id="#fefefeff">
<path fill="#fefefe" opacity="1.00" d=" M 0.00 0.00 L 250.00 0.00 L 250.00 250.00 L 0.00 250.00 L 0.00 0.00 M 10.05 115.11 C 29.23 148.49 48.53 181.80 67.82 215.13 C 68.62 216.71 70.31 218.48 69.23 220.35 C 65.99 226.49 61.94 232.21 59.02 238.52 C 97.69 238.75 136.36 238.54 175.03 238.63 C 176.60 238.54 178.26 238.77 179.76 238.20 C 199.17 204.19 218.88 170.33 238.42 136.39 C 239.55 134.19 238.15 131.77 237.06 129.86 C 218.36 97.88 199.97 65.72 181.37 33.69 C 180.27 32.00 179.87 29.68 181.14 27.95 C 184.34 22.55 187.70 17.23 190.43 11.56 C 187.29 11.40 184.14 11.35 181.00 11.37 C 143.98 11.47 106.95 11.29 69.93 11.45 C 50.08 46.07 30.17 80.66 10.05 115.11 Z" />
<path fill="#fefefe" opacity="1.00" d=" M 92.34 49.29 C 116.87 49.23 141.42 49.11 165.95 49.34 C 141.45 91.75 116.89 134.12 92.35 176.50 C 91.99 178.17 89.93 177.90 89.59 176.38 C 78.04 155.85 65.77 135.72 54.45 115.07 C 67.02 93.10 79.80 71.27 92.34 49.29 Z" />
<path fill="#fefefe" opacity="1.00" d=" M 151.83 83.81 C 154.10 79.74 156.38 75.68 159.00 71.82 C 170.67 91.28 181.73 111.13 193.22 130.70 C 193.89 132.22 195.60 133.85 194.58 135.59 C 182.60 156.60 170.38 177.48 158.39 198.49 C 157.74 199.33 157.17 200.78 155.84 200.56 C 132.18 200.60 108.52 200.53 84.86 200.60 C 85.30 199.15 85.73 197.69 86.51 196.40 C 108.48 158.98 129.97 121.29 151.83 83.81 Z" />
</g>
<g id="#1b2141ff">
<path fill="#1b2141" opacity="1.00" d=" M 10.05 115.11 C 30.17 80.66 50.08 46.07 69.93 11.45 C 106.95 11.29 143.98 11.47 181.00 11.37 C 184.14 11.35 187.29 11.40 190.43 11.56 C 187.70 17.23 184.34 22.55 181.14 27.95 C 179.87 29.68 180.27 32.00 181.37 33.69 C 199.97 65.72 218.36 97.88 237.06 129.86 C 238.15 131.77 239.55 134.19 238.42 136.39 C 218.88 170.33 199.17 204.19 179.76 238.20 C 178.26 238.77 176.60 238.54 175.03 238.63 C 136.36 238.54 97.69 238.75 59.02 238.52 C 61.94 232.21 65.99 226.49 69.23 220.35 C 70.31 218.48 68.62 216.71 67.82 215.13 C 48.53 181.80 29.23 148.49 10.05 115.11 M 92.34 49.29 C 79.80 71.27 67.02 93.10 54.45 115.07 C 65.77 135.72 78.04 155.85 89.59 176.38 C 89.93 177.90 91.99 178.17 92.35 176.50 C 116.89 134.12 141.45 91.75 165.95 49.34 C 141.42 49.11 116.87 49.23 92.34 49.29 M 151.83 83.81 C 129.97 121.29 108.48 158.98 86.51 196.40 C 85.73 197.69 85.30 199.15 84.86 200.60 C 108.52 200.53 132.18 200.60 155.84 200.56 C 157.17 200.78 157.74 199.33 158.39 198.49 C 170.38 177.48 182.60 156.60 194.58 135.59 C 195.60 133.85 193.89 132.22 193.22 130.70 C 181.73 111.13 170.67 91.28 159.00 71.82 C 156.38 75.68 154.10 79.74 151.83 83.81 Z" />
</g>
</svg>

<?xml version="1.0" encoding="utf-8"?>
<!-- Generator: Adobe Illustrator 26.0.3, SVG Export Plug-In . SVG Version: 6.00 Build 0)  -->
<svg version="1.1" id="Layer_1" xmlns="http://www.w3.org/2000/svg" xmlns:xlink="http://www.w3.org/1999/xlink" x="0px" y="0px"
	 viewBox="0 0 250 250" style="enable-background:new 0 0 250 250;" xml:space="preserve">
<style type="text/css">
	.st0{fill:#FEFEFE;}
	.st1{fill:#1B2141;}
</style>
<g id="_x23_fefefeff">
	<path class="st0" d="M92.3,49.3c24.5-0.1,49.1-0.2,73.6,0c-24.5,42.4-49.1,84.8-73.6,127.2c-0.4,1.7-2.4,1.4-2.8-0.1
		c-11.5-20.5-23.8-40.7-35.1-61.3C67,93.1,79.8,71.3,92.3,49.3z"/>
	<path class="st0" d="M151.8,83.8c2.3-4.1,4.6-8.1,7.2-12c11.7,19.5,22.7,39.3,34.2,58.9c0.7,1.5,2.4,3.2,1.4,4.9
		c-12,21-24.2,41.9-36.2,62.9c-0.6,0.8-1.2,2.3-2.6,2.1c-23.7,0-47.3,0-71,0c0.4-1.5,0.9-2.9,1.7-4.2
		C108.5,159,130,121.3,151.8,83.8z"/>
</g>
<g id="_x23_1b2141ff">
	<path class="st1" d="M10.1,115.1c20.1-34.4,40-69,59.9-103.7c37-0.2,74,0,111.1-0.1c3.1,0,6.3,0,9.4,0.2c-2.7,5.7-6.1,11-9.3,16.4
		c-1.3,1.7-0.9,4,0.2,5.7c18.6,32,37,64.2,55.7,96.2c1.1,1.9,2.5,4.3,1.4,6.5c-19.5,33.9-39.2,67.8-58.7,101.8
		c-1.5,0.6-3.2,0.3-4.7,0.4c-38.7-0.1-77.3,0.1-116-0.1c2.9-6.3,7-12,10.2-18.2c1.1-1.9-0.6-3.6-1.4-5.2
		C48.5,181.8,29.2,148.5,10.1,115.1 M92.3,49.3c-12.5,22-25.3,43.8-37.9,65.8c11.3,20.7,23.6,40.8,35.1,61.3
		c0.3,1.5,2.4,1.8,2.8,0.1c24.5-42.4,49.1-84.8,73.6-127.2C141.4,49.1,116.9,49.2,92.3,49.3 M151.8,83.8
		C130,121.3,108.5,159,86.5,196.4c-0.8,1.3-1.2,2.8-1.7,4.2c23.7-0.1,47.3,0,71,0c1.3,0.2,1.9-1.2,2.6-2.1
		c12-21,24.2-41.9,36.2-62.9c1-1.7-0.7-3.4-1.4-4.9c-11.5-19.6-22.6-39.4-34.2-58.9C156.4,75.7,154.1,79.7,151.8,83.8z"/>
</g>
</svg>
